src/assets/task-icon.svg

<svg width="20px" height="16px" viewBox="0 0 20 16" version="1.1" xmlns="http://www.w3.org/2000/svg" xmlns:xlink="http://www.w3.org/1999/xlink">
    <defs>
        <path d="M19,0 C19.5522847,0 20,0.44771525 20,1 L20,3 C20,3.55228475 19.5522847,4 19,4 L1,4 C0.44771525,4 0,3.55228475 0,3 L0,1 C0,0.44771525 0.44771525,0 1,0 L19,0 Z M18,1.5 L14,1.5 L14,2.5 L18,2.5 L18,1.5 Z" id="path-1"></path>
        <path d="M19,0 C19.5522847,0 20,0.44771525 20,1 L20,3 C20,3.55228475 19.5522847,4 19,4 L1,4 C0.44771525,4 0,3.55228475 0,3 L0,1 C0,0.44771525 0.44771525,0 1,0 L19,0 Z M18,1.5 L7,1.5 L7,2.5 L18,2.5 L18,1.5 Z" id="path-3"></path>
        <path d="M19,5.04870979e-29 C19.5522847,5.04870979e-29 20,0.44771525 20,1 L20,3 C20,3.55228475 19.5522847,4 19,4 L1,4 C0.44771525,4 0,3.55228475 0,3 L0,1 C0,0.44771525 0.44771525,5.04870979e-29 1,5.04870979e-29 L19,5.04870979e-29 Z M18,1.5 L12,1.5 L12,2.5 L18,2.5 L18,1.5 Z" id="path-5"></path>
    </defs>
    <g id="Icons" stroke="none" stroke-width="1" fill="none" fill-rule="evenodd">
        <g transform="translate(-16.000000, -21.000000)" id="01_Icon/navbar/tasks">
            <g transform="translate(16.000000, 21.000000)">
                <g id="Mask" transform="translate(0.000000, -0.000000)">
                    <g id="Rectangle">
                        <mask id="mask-2" fill="white">
                            <use xlink:href="#path-1"></use>
                        </mask>
                        <use id="Combined-Shape" fill="currentColor" xlink:href="#path-1"></use>
                    </g>
                    <g id="Rectangle" transform="translate(0.000000, 6.000000)">
                        <mask id="mask-4" fill="white">
                            <use xlink:href="#path-3"></use>
                        </mask>
                        <use id="Combined-Shape" fill="currentColor" xlink:href="#path-3"></use>
                    </g>
                    <g id="Rectangle" transform="translate(0.000000, 12.000000)">
                        <mask id="mask-6" fill="white">
                            <use xlink:href="#path-5"></use>
                        </mask>
                        <use id="Combined-Shape" fill="currentColor" xlink:href="#path-5"></use>
                    </g>
                </g>
            </g>
        </g>
    </g>
</svg>

<svg width="20" height="16" xmlns="http://www.w3.org/2000/svg" xmlns:xlink="http://www.w3.org/1999/xlink"><defs><path d="M19 0a1 1 0 011 1v2a1 1 0 01-1 1H1a1 1 0 01-1-1V1a1 1 0 011-1h18zm-1 1.5h-4v1h4v-1z" id="a"/><path d="M19 0a1 1 0 011 1v2a1 1 0 01-1 1H1a1 1 0 01-1-1V1a1 1 0 011-1h18zm-1 1.5H7v1h11v-1z" id="b"/><path d="M19 0a1 1 0 011 1v2a1 1 0 01-1 1H1a1 1 0 01-1-1V1a1 1 0 011-1h18zm-1 1.5h-6v1h6v-1z" id="c"/></defs><g fill="currentColor" fill-rule="evenodd"><use xlink:href="#a"/><use xlink:href="#b" transform="translate(0 6)"/><use xlink:href="#c" transform="translate(0 12)"/></g></svg>
